!!!OTL: 1481. Der junge Schweizerbue.
!!!ODT: 1840 (vor)
!!!ARE: Europa, Mitteleuropa, Deutschland; Schweiz ?
!!!SCT: E1481
!!!TXL: @@GSW
!!!YEM: Copyright 1995, estate of Helmut Schaffrath.
**kern	**text
*ICvox	*
*M2/4	*
*k[f#c#]	*
*D:	*
!LO:TX:a:t=Vor 1840	!
{16f#	Steh
16g	nur
=1	=1
8a	auf,
16f#	ſteh
16g	nur
16a	auf,
16g	du
16f#	jun-
16g	-ger
=2	=2
8a	Schweiʒer-
16ff#L	.
16eeJ	.
8dd}	-bua,
{16a	ſteh
16a	nur
=3	=3
8a	auf,
16ggL	es
16ff#J	.
8ee	iſt
16ff#L	jetʒt
16eeJ	.
=4	=4
4dd	Ʒeit!
8r}	.
{16f#	Steh
16g	nur
=5	=5
8a	auf,
16f#	ſteh
16g	nur
16a	auf,
16g	du
16f#	jun-
16g	-ger
=6	=6
8a	Schweiʒer-
16ff#L	.
16eeJ	.
8dd}	-bua,
{16a	ſteh
16a	nur
=7	=7
8a	auf,
16ggL	es
16ff#J	.
8ee	iſt
16ff#L	jetʒt
16eeJ	.
=8	=8
4dd	Ʒeit!
8r}	.
{8a	Steh
=9	=9
8g	nur
16eeL	in
16ddJ	.
8cc#	Got-
8a	-tes
=10	=10
8a	Na-
16ff#L	-men
16eeJ	.
8dd}	auf,
{16a	dei-
16a	-ne
=11	=11
16gL	Kuha
16aJ	.
16eeL	die
16ddJ	ſind
8cc#	ſchon
16a	auf
16a	der
=12	=12
8a	Al-
16ff#L	-ma
16eeJ	.
8dd}	drauf.
{16f#	Steh
16g	nur
=13	=13
16aL	auf,
16gJ	.
16f#L	du
16gJ	.
16aL	jun-
16gJ	.
16f#L	-ger
16gJ	Schwei-
=14	=14
8a	.
16ff#L	-ʒer-
16eeJ	.
8dd}	-bua,
{16a	ſteh
16a	nur
=15	=15
8a	auf,
16ggL	es
16ff#J	.
8ee	iſt
16ff#L	jetʒt
16eeJ	.
=16	=16
4dd	Ʒeit!
8r}	.
==	==
!!!AGN: Staende -, Hirten -, Alpen - Lied
!!!ONB: ESAC (Essen Associative Code) Database: ERK3
!!!AMT: simple duple
!!!AIN: vox
!!!EED: Helmut Schaffrath
!!!EEV: 1.0
!!!GTL: Staendelieder (Berufslieder). 3. Hirtenlieder. Alpenhirtengesaenge und Ruhreihen.
!!!URL-scan: https://rosdok.uni-rostock.de/mcrviewer/recordIdentifier/rosdok_ppn745177999/iview2/phys_0341.iview2?x=-128.77276441889285&y=209.2888921604026&scale=0.5870222003877487&rotation=0&layout=singlePageLayout
!!!ENC: Anna Maria Matuszewska
!!!EEV: 2025/03/01
*-	*-
